img/social/twit.svg

<svg width="32" height="32" viewBox="0 0 32 32" fill="none" xmlns="http://www.w3.org/2000/svg">
<path d="M16 32C13.8333 32 11.7604 31.5781 9.78125 30.7344C7.80208 29.8906 6.09896 28.7552 4.67188 27.3281C3.24479 25.901 2.10938 24.1979 1.26562 22.2188C0.421875 20.2396 0 18.1667 0 16C0 13.8333 0.421875 11.7604 1.26562 9.78125C2.10938 7.80208 3.24479 6.09896 4.67188 4.67188C6.09896 3.24479 7.80208 2.10938 9.78125 1.26562C11.7604 0.421875 13.8333 0 16 0C18.1667 0 20.2396 0.421875 22.2188 1.26562C24.1979 2.10938 25.901 3.24479 27.3281 4.67188C28.7552 6.09896 29.8906 7.80208 30.7344 9.78125C31.5781 11.7604 32 13.8333 32 16C32 18.1667 31.5781 20.2396 30.7344 22.2188C29.8906 24.1979 28.7552 25.901 27.3281 27.3281C25.901 28.7552 24.1979 29.8906 22.2188 30.7344C20.2396 31.5781 18.1667 32 16 32ZM25.4062 8C25.2812 8.0625 25.0938 8.17708 24.8438 8.34375L24.2344 8.75L23.6562 9.0625L23 9.28125C22.2292 8.42708 21.2812 8 20.1562 8C17.7188 8 16.5 9.02083 16.5 11.0625V12.9062C13.1458 12.7396 10.5729 11.5104 8.78125 9.21875C8.26042 9.76042 8 10.3542 8 11C8 12.375 8.51042 13.4167 9.53125 14.125C9.40625 14.125 9.22917 14.1354 9 14.1562C8.77083 14.1771 8.58854 14.1771 8.45312 14.1562C8.31771 14.1354 8.16667 14.0833 8 14C8 14.9583 8.25521 15.7552 8.76562 16.3906C9.27604 17.026 9.97917 17.4375 10.875 17.625C10.6667 17.875 10.375 18 10 18C9.66667 18 9.375 17.9062 9.125 17.7188C9.125 18.5312 9.51562 19.1615 10.2969 19.6094C11.0781 20.0573 11.9583 20.2917 12.9375 20.3125C12.5625 20.875 12.0156 21.2969 11.2969 21.5781C10.5781 21.8594 9.8125 22 9 22C8.70833 22 8.30729 21.9271 7.79688 21.7812C7.28646 21.6354 7.02083 21.5625 7 21.5625C7.33333 22.2292 8.01562 22.8021 9.04688 23.2812C10.0781 23.7604 11.3854 24 12.9688 24C14.3646 24 15.6667 23.7552 16.875 23.2656C18.0833 22.776 19.1146 22.125 19.9688 21.3125C20.8229 20.5 21.5573 19.5729 22.1719 18.5312C22.7865 17.4896 23.2448 16.4115 23.5469 15.2969C23.849 14.1823 24 13.0833 24 12C24 11.9583 24.125 11.8698 24.375 11.7344C24.625 11.599 24.9167 11.4167 25.25 11.1875C25.5833 10.9583 25.8333 10.7188 26 10.4688C24.875 10.4688 24.125 10.4896 23.75 10.5312C24.4792 10.0938 25.0312 9.25 25.4062 8Z" fill="white"/>
</svg>

<svg width="32" height="32" fill="none" xmlns="http://www.w3.org/2000/svg"><path d="M16 32a15.7 15.7 0 01-6.22-1.27 16.02 16.02 0 01-5.1-3.4 16.02 16.02 0 01-3.41-5.11A15.7 15.7 0 010 16c0-2.17.42-4.24 1.27-6.22a16.02 16.02 0 013.4-5.1 16.02 16.02 0 015.11-3.41A15.7 15.7 0 0116 0c2.17 0 4.24.42 6.22 1.27 1.98.84 3.68 1.97 5.1 3.4a16.02 16.02 0 013.41 5.11A15.7 15.7 0 0132 16c0 2.17-.42 4.24-1.27 6.22a16.02 16.02 0 01-3.4 5.1 16.02 16.02 0 01-5.11 3.41A15.7 15.7 0 0116 32zm9.4-24c-.12.06-.3.18-.56.34l-.6.41-.58.31-.66.22A3.68 3.68 0 0020.16 8c-2.44 0-3.66 1.02-3.66 3.06v1.85c-3.35-.17-5.93-1.4-7.72-3.7A2.52 2.52 0 008 11c0 1.38.51 2.42 1.53 3.13-.12 0-.3 0-.53.03-.23.02-.41.02-.55 0A1.57 1.57 0 018 14c0 .96.26 1.76.77 2.4a3.53 3.53 0 002.1 1.23c-.2.25-.5.37-.87.37-.33 0-.63-.1-.88-.28 0 .81.4 1.44 1.18 1.89.78.45 1.66.68 2.64.7-.38.57-.92.99-1.64 1.27-.72.28-1.49.42-2.3.42-.3 0-.7-.07-1.2-.22l-.8-.22c.33.67 1.02 1.24 2.05 1.72 1.03.48 2.34.72 3.92.72a10.3 10.3 0 007-2.69A13.08 13.08 0 0024 12c0-.04.13-.13.38-.27.25-.13.54-.31.87-.54.33-.23.58-.47.75-.72-1.13 0-1.88.02-2.25.06.73-.44 1.28-1.28 1.66-2.53z" fill="#fff" fill-opacity=".3"/></svg>
